packages/vibrant-icons/assets/icons/AlignHorizontalCenter/Thin.svg

<svg width="24" height="24" viewBox="0 0 24 24" fill="none" xmlns="http://www.w3.org/2000/svg"><path d="M11.4004 22.3499v-3.25H7.25039c-.469 0-.85-.381-.85-.85v-4c0-.469.381-.85.85-.85h4.15001v-2.8H4.00039c-.469 0-.85-.381-.85-.85v-4c0-.469.381-.85.85-.85h7.40001v-3.25h1.2v3.25h7.4c.469 0 .85.381.85.85v4c0 .469-.381.85-.85.85h-7.4v2.8h4.15c.469 0 .85.381.85.85v4c0 .469-.381.85-.85.85h-4.15v3.25h-1.2Zm-3.30001-4.95h7.80001v-2.3H8.10039v2.3Zm-3.25-8.5H19.1504v-2.3H4.85039v2.3Z" fill="#000"/></svg>

<svg xmlns="http://www.w3.org/2000/svg" width="24" height="24" fill="none"><path fill="#000" d="M11.4 22.35V19.1H7.25a.85.85 0 0 1-.85-.85v-4a.85.85 0 0 1 .85-.85h4.15v-2.8H4a.85.85 0 0 1-.85-.85v-4A.85.85 0 0 1 4 4.9h7.4V1.65h1.2V4.9H20a.85.85 0 0 1 .85.85v4a.85.85 0 0 1-.85.85h-7.4v2.8h4.15a.85.85 0 0 1 .85.85v4a.85.85 0 0 1-.85.85H12.6v3.25zM8.1 17.4h7.8v-2.3H8.1zM4.85 8.9h14.3V6.6H4.85z"/></svg>
